!!!OTL: Rengong Haozi (Renche Haozi)
!! Jiang Mindun, .......... , S. 38
!!!ARE: Asia, China, ........ ?
!!!SCT: C1301
!!!YEM: Copyright 1995, estate of Helmut Schaffrath.
**kern
*ICvox
*Ivox
*M2/4
*k[f#]
*G:
{8b
16a
16a
4a
=1
8a
16g
16g
4e}
=2
{8g
8e
4a
=3
8g
8g
8e
8g
=4
4e
4d}
=5
{16.a
32b
16g
16g
4a
=6
16g
16a
16e
16e
4e}
=7
{8g
8e
4a
=8
8g
8g
8e
8g
=9
4e
4d}
=10
{8b
8b
8b
8b
=11
4a
4g
=12
8d
8d
8d
8e
=13
2g}
=14
{8b
8b
8b
8b
=15
4a
4g
=16
8d
8d
8d
8e
=17
2g}
=18
{8ffx#
4.a
=19
8a
16dd
16b
[4a
=20
2a]
=21
8d
2ffx#
8r}
==
!!!AGN: Haozi
!! ++++ Der Titel stimmt nicht mit dem im Buch Åberein.
!!    Die Phraseneinteilung erfolgt nach musikalischen Kriterien,
!!    nach funktionalen  wÑre sie 2,3,2,3,2,2,4.
!!    Die letzte Zeile wird wiederholt. Zwei rh. Werte sind original auf
!!    Tonhîhen eingetragen.
!!!ONB: ESAC (Essen Associative Code) Database: CHINA
!!!AMT: simple duple
!!!AIN: vox
!!!EED: Helmut Schaffrath
!!!EEV: 1.0
*-
!!!ONB: Tied note syntax fixed by Craig Sapp, 2004/05/03/
